papirus/32x32/apps/blender.svg

<?xml version="1.0" encoding="UTF-8" standalone="no"?>
<!-- Created with Inkscape (http://www.inkscape.org/) -->

<svg
   xmlns:dc="http://purl.org/dc/elements/1.1/"
   xmlns:cc="http://creativecommons.org/ns#"
   xmlns:rdf="http://www.w3.org/1999/02/22-rdf-syntax-ns#"
   xmlns:svg="http://www.w3.org/2000/svg"
   xmlns="http://www.w3.org/2000/svg"
   xmlns:sodipodi="http://sodipodi.sourceforge.net/DTD/sodipodi-0.dtd"
   xmlns:inkscape="http://www.inkscape.org/namespaces/inkscape"
   width="32"
   height="32"
   id="svg5453"
   version="1.1"
   inkscape:version="0.91 r13725"
   sodipodi:docname="blender.svg">
  <defs
     id="defs5455" />
  <sodipodi:namedview
     id="base"
     pagecolor="#ffffff"
     bordercolor="#666666"
     borderopacity="1.0"
     inkscape:pageopacity="0"
     inkscape:pageshadow="2"
     inkscape:zoom="1"
     inkscape:cx="12.827707"
     inkscape:cy="15.757405"
     inkscape:document-units="px"
     inkscape:current-layer="layer1"
     showgrid="false"
     fit-margin-top="0"
     fit-margin-left="0"
     fit-margin-right="0"
     fit-margin-bottom="0"
     inkscape:window-width="1600"
     inkscape:window-height="844"
     inkscape:window-x="-4"
     inkscape:window-y="32"
     inkscape:window-maximized="1"
     inkscape:showpageshadow="false"
     borderlayer="true"
     showguides="false"
     inkscape:snap-bbox="true"
     inkscape:bbox-paths="false"
     inkscape:bbox-nodes="true"
     inkscape:object-nodes="true"
     inkscape:snap-center="true">
    <inkscape:grid
       type="xygrid"
       id="grid4063" />
    <sodipodi:guide
       position="1.1650391e-05,47.999996"
       orientation="4,0"
       id="guide4146" />
    <sodipodi:guide
       position="1.1650391e-05,43.999996"
       orientation="0,48"
       id="guide4148" />
    <sodipodi:guide
       position="48.000012,43.999996"
       orientation="-4,0"
       id="guide4150" />
    <sodipodi:guide
       position="48.000012,47.999996"
       orientation="0,-48"
       id="guide4152" />
    <sodipodi:guide
       position="1.1650391e-05,4.0000264"
       orientation="4,0"
       id="guide4154" />
    <sodipodi:guide
       position="1.1650391e-05,2.6367188e-05"
       orientation="0,48"
       id="guide4156" />
    <sodipodi:guide
       position="48.000012,2.6367188e-05"
       orientation="-4,0"
       id="guide4158" />
    <sodipodi:guide
       position="48.000012,4.0000264"
       orientation="0,-48"
       id="guide4160" />
    <sodipodi:guide
       position="48.000012,48.000026"
       orientation="0,-4"
       id="guide4162" />
    <sodipodi:guide
       position="44.000012,48.000026"
       orientation="48,0"
       id="guide4164" />
    <sodipodi:guide
       position="44.000012,2.6367188e-05"
       orientation="0,4"
       id="guide4166" />
    <sodipodi:guide
       position="48.000012,2.6367188e-05"
       orientation="-48,0"
       id="guide4168" />
    <sodipodi:guide
       position="4.0000422,48.000026"
       orientation="0,-4"
       id="guide4170" />
    <sodipodi:guide
       position="4.2167969e-05,48.000026"
       orientation="48,0"
       id="guide4172" />
    <sodipodi:guide
       position="4.2167969e-05,2.6367188e-05"
       orientation="0,4"
       id="guide4174" />
    <sodipodi:guide
       position="4.0000422,43.999996"
       orientation="39.999969,0"
       id="guide4175" />
    <sodipodi:guide
       position="4.0000422,4.0000264"
       orientation="0,20"
       id="guide4177" />
    <sodipodi:guide
       position="24.000042,4.0000264"
       orientation="-39.999969,0"
       id="guide4179" />
    <sodipodi:guide
       position="24.000042,43.999996"
       orientation="0,-20"
       id="guide4181" />
    <sodipodi:guide
       position="4.0000422,23.999843"
       orientation="20,0"
       id="guide4185" />
    <sodipodi:guide
       position="44.000012,3.9998433"
       orientation="-20,0"
       id="guide4189" />
    <sodipodi:guide
       position="44.000012,23.999843"
       orientation="0,-39.999969"
       id="guide4191" />
  </sodipodi:namedview>
  <metadata
     id="metadata5458">
    <rdf:RDF>
      <cc:Work
         rdf:about="">
        <dc:format>image/svg+xml</dc:format>
        <dc:type
           rdf:resource="http://purl.org/dc/dcmitype/StillImage" />
        <dc:title></dc:title>
      </cc:Work>
    </rdf:RDF>
  </metadata>
  <g
     inkscape:label="Capa 1"
     inkscape:groupmode="layer"
     id="layer1"
     transform="translate(-384.57143,-515.798)">
    <path
       style="opacity:1;fill:#f4b43f;fill-opacity:1;stroke:none;stroke-width:2;stroke-linecap:round;stroke-linejoin:round;stroke-miterlimit:4;stroke-dasharray:none;stroke-opacity:1"
       d="M 15.619141 3 A 1.9502378 1.948918 0 0 0 14.511719 6.5097656 L 16.726562 8.2128906 L 5.9511719 8.2128906 A 1.9502378 1.948918 0 1 0 5.9511719 12.111328 L 10.837891 12.111328 L 2.8535156 17.908203 A 1.9502378 1.948918 0 1 0 5.1445312 21.060547 L 9.2265625 18.097656 A 10.400211 10.393173 0 0 0 9.2011719 18.605469 A 10.400211 10.393173 0 0 0 19.599609 29 A 10.400211 10.393173 0 0 0 30 18.605469 A 10.400211 10.393173 0 0 0 25.478516 10.035156 A 1.9502378 1.948918 0 0 0 25.339844 9.9160156 L 16.888672 3.4199219 A 1.9502378 1.948918 0 0 0 15.619141 3 z M 20 13 A 5.9999913 5.999994 0 0 1 26 19 A 5.9999913 5.999994 0 0 1 20 25 A 5.9999913 5.999994 0 0 1 14 19 A 5.9999913 5.999994 0 0 1 20 13 z "
       transform="translate(384.57143,515.798)"
       id="path4243" />
    <circle
       style="opacity:1;fill:#408ef4;fill-opacity:1;stroke:none;stroke-width:1;stroke-linecap:round;stroke-linejoin:round;stroke-miterlimit:4;stroke-dasharray:none;stroke-opacity:1"
       id="path4178"
       cx="404.57144"
       cy="534.79797"
       r="3" />
    <path
       style="opacity:0.3;fill:#000000;fill-opacity:1;stroke:none;stroke-width:2;stroke-linecap:round;stroke-linejoin:round;stroke-miterlimit:4;stroke-dasharray:none;stroke-opacity:1"
       d="M 13.794922 4.453125 A 1.9502378 1.948918 0 0 0 14.511719 6.5097656 L 15.425781 7.2128906 L 16.726562 7.2128906 L 14.511719 5.5097656 A 1.9502378 1.948918 0 0 1 13.794922 4.453125 z M 4.0664062 9.6621094 A 1.9505387 1.9492187 0 0 0 5.9511719 12.111328 L 9.4609375 12.111328 L 10.837891 11.111328 L 5.9511719 11.111328 A 1.95054 1.94922 0 0 1 4.0664062 9.6621094 z M 20 12 A 5.9999913 5.999994 0 0 0 14 18 A 5.9999913 5.999994 0 0 0 14.025391 18.498047 A 5.9999913 5.999994 0 0 1 20 13 A 5.9999913 5.999994 0 0 1 25.974609 18.501953 A 5.9999913 5.999994 0 0 0 26 18 A 5.9999913 5.999994 0 0 0 20 12 z M 9.2265625 17.097656 L 5.1445312 20.060547 A 1.9502378 1.948918 0 0 1 2.0664062 19.015625 A 1.9502378 1.948918 0 0 0 5.1445312 21.060547 L 9.2265625 18.097656 A 10.400211 10.393173 0 0 1 9.2011719 17.605469 A 10.400211 10.393173 0 0 1 9.2265625 17.097656 z M 9.2265625 18.101562 A 10.400211 10.393173 0 0 0 9.2011719 18.605469 A 10.400211 10.393173 0 0 0 19.599609 29 A 10.400211 10.393173 0 0 0 30 18.605469 A 10.400211 10.393173 0 0 0 29.978516 18.201172 A 10.400211 10.393173 0 0 1 19.599609 28 A 10.400211 10.393173 0 0 1 9.2265625 18.101562 z M 17.042969 18.486328 A 3 3 0 0 0 17 19 A 3 3 0 0 0 20 22 A 3 3 0 0 0 23 19 A 3 3 0 0 0 22.957031 18.513672 A 3 3 0 0 1 20 21 A 3 3 0 0 1 17.042969 18.486328 z "
       transform="translate(384.57143,515.798)"
       id="path4246" />
    <path
       style="opacity:0.2;fill:#ffffff;fill-opacity:1;stroke:none;stroke-width:2;stroke-linecap:round;stroke-linejoin:round;stroke-miterlimit:4;stroke-dasharray:none;stroke-opacity:1"
       d="M 15.619141 3 A 1.9502378 1.948918 0 0 0 13.794922 5.453125 A 1.9502378 1.948918 0 0 1 15.619141 4 A 1.9502378 1.948918 0 0 1 16.888672 4.4199219 L 25.339844 10.916016 A 1.9502378 1.948918 0 0 1 25.478516 11.035156 A 10.400211 10.393173 0 0 1 29.978516 19.201172 A 10.400211 10.393173 0 0 0 30 18.605469 A 10.400211 10.393173 0 0 0 25.478516 10.035156 A 1.9502378 1.948918 0 0 0 25.339844 9.9160156 L 16.888672 3.4199219 A 1.9502378 1.948918 0 0 0 15.619141 3 z M 5.9511719 8.2128906 A 1.9505387 1.9492187 0 0 0 4.0664062 10.662109 A 1.95054 1.94922 0 0 1 5.9511719 9.2128906 L 16.726562 9.2128906 L 15.425781 8.2128906 L 5.9511719 8.2128906 z M 9.4609375 13.111328 L 2.8535156 17.908203 A 1.9502378 1.948918 0 0 0 2.0664062 20.015625 A 1.9502378 1.948918 0 0 1 2.8535156 18.908203 L 10.837891 13.111328 L 9.4609375 13.111328 z M 20 16 A 3 3 0 0 0 17 19 A 3 3 0 0 0 17.042969 19.486328 A 3 3 0 0 1 20 17 A 3 3 0 0 1 22.957031 19.513672 A 3 3 0 0 0 23 19 A 3 3 0 0 0 20 16 z M 14.025391 19.498047 A 5.9999913 5.999994 0 0 0 14 20 A 5.9999913 5.999994 0 0 0 20 26 A 5.9999913 5.999994 0 0 0 26 20 A 5.9999913 5.999994 0 0 0 25.974609 19.501953 A 5.9999913 5.999994 0 0 1 20 25 A 5.9999913 5.999994 0 0 1 14.025391 19.498047 z "
       transform="translate(384.57143,515.798)"
       id="path4251" />
  </g>
</svg>

<?xml version="1.0" encoding="UTF-8" standalone="no"?>
<!-- Created with Inkscape (http://www.inkscape.org/) -->
<svg id="svg5453" xmlns:rdf="http://www.w3.org/1999/02/22-rdf-syntax-ns#" xmlns="http://www.w3.org/2000/svg" height="32" width="32" version="1.1" xmlns:cc="http://creativecommons.org/ns#" xmlns:dc="http://purl.org/dc/elements/1.1/">
 <metadata id="metadata5458">
  <rdf:RDF>
   <cc:Work rdf:about="">
    <dc:format>image/svg+xml</dc:format>
    <dc:type rdf:resource="http://purl.org/dc/dcmitype/StillImage"/>
    <dc:title/>
   </cc:Work>
  </rdf:RDF>
 </metadata>
 <g id="layer1" transform="translate(-384.57 -515.8)">
  <path id="path4243" d="m15.619 3a1.9502 1.9489 0 0 0 -1.107 3.5098l2.215 1.7031h-10.776a1.9502 1.9489 0 1 0 0.0002 3.8981h4.8868l-7.9845 5.797a1.9502 1.9489 0 1 0 2.291 3.153l4.0821-2.963a10.4 10.393 0 0 0 -0.0254 0.507 10.4 10.393 0 0 0 10.399 10.395 10.4 10.393 0 0 0 10.4 -10.395 10.4 10.393 0 0 0 -4.521 -8.57 1.9502 1.9489 0 0 0 -0.139 -0.119l-8.451-6.4961a1.9502 1.9489 0 0 0 -1.27 -0.4199zm4.381 10a6 6 0 0 1 6 6 6 6 0 0 1 -6 6 6 6 0 0 1 -6 -6 6 6 0 0 1 6 -6z" transform="translate(384.57 515.8)" fill="#f4b43f"/>
  <circle id="path4178" cx="404.57" cy="534.8" r="3" fill="#408ef4"/>
  <path id="path4246" opacity=".3" d="m13.795 4.4531a1.9502 1.9489 0 0 0 0.717 2.0567l0.914 0.7031h1.301l-2.215-1.7031a1.9502 1.9489 0 0 1 -0.717 -1.0567zm-9.7286 5.209a1.9505 1.9492 0 0 0 1.8848 2.4489h3.5097l1.3771-1h-4.8868a1.9505 1.9492 0 0 1 -1.8848 -1.4489zm15.934 2.3379a6 6 0 0 0 -6 6 6 6 0 0 0 0.025 0.498 6 6 0 0 1 5.975 -5.498 6 6 0 0 1 5.975 5.502 6 6 0 0 0 0.025 -0.502 6 6 0 0 0 -6 -6zm-10.773 5.098l-4.0821 2.963a1.9502 1.9489 0 0 1 -3.0781 -1.045 1.9502 1.9489 0 0 0 3.0781 2.045l4.0821-2.963a10.4 10.393 0 0 1 -0.0254 -0.493 10.4 10.393 0 0 1 0.0254 -0.507zm0 1.004a10.4 10.393 0 0 0 -0.0254 0.503 10.4 10.393 0 0 0 10.399 10.395 10.4 10.393 0 0 0 10.4 -10.395 10.4 10.393 0 0 0 -0.021 -0.404 10.4 10.393 0 0 1 -10.379 9.799 10.4 10.393 0 0 1 -10.373 -9.898zm7.8164 0.384a3 3 0 0 0 -0.043 0.514 3 3 0 0 0 3 3 3 3 0 0 0 3 -3 3 3 0 0 0 -0.043 -0.486 3 3 0 0 1 -2.957 2.486 3 3 0 0 1 -2.957 -2.514z" transform="translate(384.57 515.8)"/>
  <path id="path4251" opacity=".2" d="m15.619 3a1.9502 1.9489 0 0 0 -1.824 2.4531 1.9502 1.9489 0 0 1 1.824 -1.4531 1.9502 1.9489 0 0 1 1.27 0.4199l8.451 6.4961a1.9502 1.9489 0 0 1 0.139 0.119 10.4 10.393 0 0 1 4.5 8.166 10.4 10.393 0 0 0 0.021 -0.596 10.4 10.393 0 0 0 -4.521 -8.57 1.9502 1.9489 0 0 0 -0.139 -0.119l-8.451-6.4961a1.9502 1.9489 0 0 0 -1.27 -0.4199zm-9.6678 5.2129a1.9505 1.9492 0 0 0 -1.8848 2.4491 1.9505 1.9492 0 0 1 1.8848 -1.4491h10.776l-1.301-1h-9.4748zm3.5097 4.8981l-6.6074 4.797a1.9502 1.9489 0 0 0 -0.7871 2.108 1.9502 1.9489 0 0 1 0.7871 -1.108l7.9845-5.797h-1.3771zm10.539 2.889a3 3 0 0 0 -3 3 3 3 0 0 0 0.043 0.486 3 3 0 0 1 2.957 -2.486 3 3 0 0 1 2.957 2.514 3 3 0 0 0 0.043 -0.514 3 3 0 0 0 -3 -3zm-5.975 3.498a6 6 0 0 0 -0.025 0.502 6 6 0 0 0 6 6 6 6 0 0 0 6 -6 6 6 0 0 0 -0.025 -0.498 6 6 0 0 1 -5.975 5.498 6 6 0 0 1 -5.975 -5.502z" transform="translate(384.57 515.8)" fill="#fff"/>
 </g>
</svg>
